src/static/logos/discover.svg

<?xml version="1.0" encoding="UTF-8"?>
<svg width="512px" height="86px" viewBox="0 0 512 86" version="1.1" xmlns="http://www.w3.org/2000/svg" xmlns:xlink="http://www.w3.org/1999/xlink" preserveAspectRatio="xMidYMid">
    <defs>
        <linearGradient x1="19.4143743%" y1="9.06316954%" x2="88.6006499%" y2="80.4988417%" id="linearGradient-1">
            <stop stop-color="#F34F26" offset="0%"></stop>
            <stop stop-color="#F69E35" offset="100%"></stop>
        </linearGradient>
        <path d="M270.356257,0.364742204 C246.374007,0.364742204 226.91662,19.0997905 226.91662,42.2224896 C226.91662,66.805636 245.528651,85.1826697 270.356257,85.1826697 C294.56404,85.1826697 313.677606,66.5627539 313.677606,42.7050996 C313.677606,18.9893895 294.69179,0.364742204 270.356257,0.364742204 Z" id="path-2"></path>
        <filter x="-50%" y="-50%" width="200%" height="200%" filterUnits="objectBoundingBox" id="filter-3">
            <feMorphology radius="1" operator="erode" in="SourceAlpha" result="shadowSpreadInner1"></feMorphology>
            <feGaussianBlur stdDeviation="4" in="shadowSpreadInner1" result="shadowBlurInner1"></feGaussianBlur>
            <feOffset dx="3" dy="3" in="shadowBlurInner1" result="shadowOffsetInner1"></feOffset>
            <feComposite in="shadowOffsetInner1" in2="SourceAlpha" operator="arithmetic" k2="-1" k3="1" result="shadowInnerInner1"></feComposite>
            <feColorMatrix values="0 0 0 0 0   0 0 0 0 0   0 0 0 0 0  0 0 0 0.5 0" type="matrix" in="shadowInnerInner1"></feColorMatrix>
        </filter>
    </defs>
    <g>
		<g>
			<use fill="url(#linearGradient-1)" fill-rule="evenodd" xlink:href="#path-2"></use>
			<use fill="black" fill-opacity="1" filter="url(#filter-3)" xlink:href="#path-2"></use>
		</g>
		<path d="M23.7456761,1.8914302 L0.392712098,1.8914302 L0.392712098,83.3452818 L23.6242351,83.3452818 C35.9497171,83.3452818 44.8638087,80.424387 52.6833531,73.947003 C61.9617679,66.2520539 67.4644687,54.6489097 67.4644687,42.6577848 C67.4644687,18.6092946 49.4990731,1.8914302 23.7456761,1.8914302 Z M42.3182772,63.0677739 C37.2966092,67.598946 30.8318426,69.5561979 20.5582417,69.5561979 L16.2904548,69.5561979 L16.2904548,15.6836683 L20.5582417,15.6836683 C30.8318426,15.6836683 37.0489955,17.5179019 42.3182772,22.2761847 C47.8130922,27.1622172 51.0904245,34.7278394 51.0904245,42.5410752 C51.0904245,50.3700827 47.8130922,58.2006673 42.3182772,63.0677739 Z M74.7982489,83.3452818 L90.66918,83.3452818 L90.66918,1.8914302 L74.7982489,1.8914302 L74.7982489,83.3452818 Z M129.525598,33.136488 C119.986952,29.6020791 117.179612,27.271041 117.179612,22.8896988 C117.179612,17.7560527 122.177623,13.8510119 129.028793,13.8510119 C133.791807,13.8510119 137.700002,15.8035322 141.865274,20.430911 L150.159543,9.57849352 C143.32099,3.58056537 135.138699,0.531920849 126.213568,0.531920849 C111.815701,0.531920849 100.815031,10.5515994 100.815031,23.8517646 C100.815031,35.0984713 105.940791,40.8330142 120.846503,46.2205826 C127.079427,48.4080994 130.247935,49.8669696 131.839287,50.8637328 C135.014104,52.9408486 136.60861,55.8617434 136.60861,59.2794427 C136.60861,65.8845763 131.351945,70.762723 124.257894,70.762723 C116.684385,70.762723 110.583942,66.9807005 106.917052,59.8976883 L96.6702625,69.8022343 C103.98354,80.534788 112.779344,85.3135737 124.884025,85.3135737 C141.371624,85.3135737 152.968459,74.3065948 152.968459,58.5555276 C152.968459,45.6070685 147.607703,39.7400445 129.525598,33.136488 Z M157.974356,42.6577848 C157.974356,66.6226858 176.78984,85.1826697 200.980274,85.1826697 C207.818827,85.1826697 213.681119,83.8310461 220.895035,80.424387 L220.895035,61.7271904 C214.534361,68.0847103 208.91495,70.6428591 201.705766,70.6428591 C185.708663,70.6428591 174.342092,59.0365605 174.342092,42.5410752 C174.342092,26.9146035 186.063522,14.5765041 200.980274,14.5765041 C208.541165,14.5765041 214.291478,17.2624025 220.895035,23.735055 L220.895035,5.03943561 C213.933464,1.50818104 208.18315,0.0540422711 201.34302,0.0540422711 C177.275604,0.0540422711 157.974356,18.9893895 157.974356,42.6577848 Z M349.625746,56.6061616 L327.883059,1.8914302 L310.537486,1.8914302 L345.116654,85.4255519 L353.660114,85.4255519 L388.843332,1.8914302 L371.625509,1.8914302 L349.625746,56.6061616 Z M396.065135,83.3452818 L441.130819,83.3452818 L441.130819,69.5561979 L411.942374,69.5561979 L411.942374,47.5548575 L440.014192,47.5548575 L440.014192,33.7626193 L411.942374,33.7626193 L411.942374,15.6836683 L441.130819,15.6836683 L441.130819,1.8914302 L396.065135,1.8914302 L396.065135,83.3452818 Z M504.019955,25.9304575 C504.019955,10.6714633 493.530284,1.8914302 475.19741,1.8914302 L451.62049,1.8914302 L451.62049,83.3452818 L467.515079,83.3452818 L467.515079,50.6082334 L469.595349,50.6082334 L491.569878,83.3452818 L511.114007,83.3452818 L485.447354,49.0342307 C497.435324,46.5833287 504.019955,38.3963067 504.019955,25.9304575 Z M472.137726,39.3820298 L467.515079,39.3820298 L467.515079,14.6995224 L472.391648,14.6995224 C482.307234,14.6995224 487.679032,18.864794 487.679032,26.7915853 C487.679032,34.9691444 482.307234,39.3820298 472.137726,39.3820298 Z" fill="#0B1015"></path>
	</g>
</svg>

<svg width="512" height="86" xmlns="http://www.w3.org/2000/svg" xmlns:xlink="http://www.w3.org/1999/xlink" preserveAspectRatio="xMidYMid"><defs><linearGradient x1="19.414%" y1="9.063%" x2="88.601%" y2="80.499%" id="a"><stop stop-color="#F34F26" offset="0%"/><stop stop-color="#F69E35" offset="100%"/></linearGradient><filter x="-50%" y="-50%" width="200%" height="200%" filterUnits="objectBoundingBox" id="c"><feMorphology radius="1" in="SourceAlpha" result="shadowSpreadInner1"/><feGaussianBlur stdDeviation="4" in="shadowSpreadInner1" result="shadowBlurInner1"/><feOffset dx="3" dy="3" in="shadowBlurInner1" result="shadowOffsetInner1"/><feComposite in="shadowOffsetInner1" in2="SourceAlpha" operator="arithmetic" k2="-1" k3="1" result="shadowInnerInner1"/><feColorMatrix values="0 0 0 0 0 0 0 0 0 0 0 0 0 0 0 0 0 0 0.5 0" in="shadowInnerInner1"/></filter><path d="M270.356.365c-23.982 0-43.44 18.735-43.44 41.857 0 24.584 18.613 42.96 43.44 42.96 24.208 0 43.322-18.62 43.322-42.477 0-23.716-18.986-42.34-43.322-42.34z" id="b"/></defs><use fill="url(#a)" fill-rule="evenodd" xlink:href="#b"/><use filter="url(#c)" xlink:href="#b"/><path d="M23.746 1.891H.393v81.454h23.231c12.326 0 21.24-2.92 29.06-9.398 9.278-7.695 14.78-19.298 14.78-31.29 0-24.048-17.965-40.766-43.718-40.766zm18.572 61.177c-5.021 4.53-11.486 6.488-21.76 6.488H16.29V15.684h4.268c10.274 0 16.491 1.834 21.76 6.592 5.495 4.886 8.772 12.452 8.772 20.265 0 7.83-3.277 15.66-8.772 20.527zm32.48 20.277H90.67V1.891H74.8v81.454zm54.728-50.209c-9.539-3.534-12.346-5.865-12.346-10.246 0-5.134 4.998-9.039 11.849-9.039 4.763 0 8.671 1.953 12.836 6.58l8.295-10.853C143.32 3.581 135.139.532 126.214.532c-14.398 0-25.399 10.02-25.399 23.32 0 11.246 5.126 16.981 20.032 22.369 6.232 2.187 9.4 3.646 10.992 4.643 3.175 2.077 4.77 4.998 4.77 8.415 0 6.606-5.257 11.484-12.351 11.484-7.574 0-13.674-3.782-17.34-10.865L96.67 69.802c7.314 10.733 16.11 15.512 28.214 15.512 16.488 0 28.084-11.007 28.084-26.758 0-12.949-5.36-18.816-23.442-25.42zm28.448 9.522c0 23.965 18.816 42.525 43.006 42.525 6.839 0 12.701-1.352 19.915-4.759V61.727c-6.36 6.358-11.98 8.916-19.19 8.916-15.996 0-27.363-11.606-27.363-28.102 0-15.626 11.722-27.964 26.638-27.964 7.561 0 13.311 2.685 19.915 9.158V5.04C213.933 1.51 208.183.054 201.343.054c-24.067 0-43.369 18.935-43.369 42.604zm191.652 13.948L327.883 1.891h-17.346l34.58 83.535h8.543L388.843 1.89h-17.217l-22 54.715zm46.44 26.74h45.065v-13.79h-29.189V47.555h28.072V33.763h-28.072v-18.08h29.189V1.892h-45.066v81.454zM504.02 25.93c0-15.259-10.49-24.039-28.823-24.039H451.62v81.454h15.895V50.608h2.08l21.975 32.737h19.544l-25.667-34.31c11.988-2.452 18.573-10.639 18.573-23.105zm-31.882 13.452h-4.623V14.7h4.877c9.915 0 15.287 4.165 15.287 12.092 0 8.177-5.372 12.59-15.541 12.59z" fill="#0B1015"/></svg>
